public/Maian Cart.svg

<svg width="105" height="90" viewBox="0 0 105 90" fill="none" xmlns="http://www.w3.org/2000/svg">
<g clip-path="url(#clip0_9_96251)">
<path d="M58.764 98.9386C39.3597 98.9386 19.9557 98.9425 0.552086 98.9504C0.102714 98.9504 0.00197526 98.8521 0.00197526 98.4028C0.01251 62.412 0.0118516 26.4212 0 -9.56965C0 -10.0169 0.0987631 -10.1172 0.550111 -10.1172C39.3581 -10.1054 78.1661 -10.1054 116.974 -10.1172C117.423 -10.1172 117.525 -10.0189 117.524 -9.56965C117.512 26.4205 117.512 62.4113 117.524 98.4028C117.524 98.8491 117.425 98.9504 116.974 98.9504C97.5704 98.9366 78.1671 98.9327 58.764 98.9386Z" fill="#FDFDFD"/>
<path d="M0.880859 20.4264C1.02012 18.9391 1.62948 17.9128 3.44179 17.3554C5.5968 16.6919 7.7607 16.0579 9.91571 15.3963C12.1873 14.7003 14.444 13.9837 16.7096 13.2838C18.0498 12.8689 19.5402 13.4932 20.2651 14.6974C21.9135 17.4321 23.6062 20.1393 25.2635 22.8682C25.4403 23.1631 25.6032 23.1572 25.8847 23.0697C29.4501 21.9677 33.0203 20.8825 36.5857 19.7805C40.0947 18.6943 43.5979 17.5884 47.1069 16.5022C50.4491 15.4667 53.7932 14.4382 57.1393 13.4165C61.1313 12.1871 65.123 10.9563 69.1143 9.72428C72.995 8.52762 76.8761 7.33129 80.7575 6.13529C84.1016 5.10607 87.4408 4.06211 90.7948 3.06337C91.7824 2.76846 92.7454 2.36051 93.7883 2.22485C95.5107 1.99974 97.1156 3.55881 97.09 5.2722C97.0682 6.74673 97.1966 8.21634 97.2756 9.68791C97.3869 11.766 97.5067 13.8438 97.6351 15.9212C97.8524 19.4601 98.0855 23.0088 98.2968 26.5535C98.4134 28.5195 98.4944 30.4944 98.602 32.4644C98.7531 35.2168 98.9358 37.9693 99.0504 40.7315C99.079 41.4197 99.2272 42.096 99.0948 42.8008C98.8529 44.0895 98.0638 44.8759 96.8766 45.2475C92.4787 46.6237 88.066 47.9587 83.6601 49.3123C79.2738 50.661 74.8877 52.0113 70.5019 53.3633L51.9286 59.0795C50.8096 59.4246 49.7014 59.8109 48.5706 60.1137C48.1262 60.2326 48.1183 60.4341 48.296 60.7251C49.4996 62.699 50.7111 64.6683 51.9305 66.633C52.1656 67.0144 52.4648 67.3713 52.6219 67.7822C52.7789 68.1931 53.0347 68.198 53.3577 68.0977C55.1255 67.5492 56.8894 66.9879 58.6573 66.4423C63.6883 64.8892 68.7196 63.3393 73.7512 61.7927C79.9345 59.8876 86.1174 57.9815 92.2999 56.0745C94.0145 55.5466 95.7418 55.061 97.4416 54.4928C98.7581 54.0524 100.231 54.6098 100.916 55.5918C101.724 56.7468 101.607 58.3246 100.64 59.4029C100.252 59.8147 99.7561 60.1113 99.2084 60.2601C95.2135 61.4643 91.2303 62.7039 87.2482 63.9504C82.4296 65.4593 77.5912 66.9053 72.7646 68.3887C67.1022 70.1293 61.4398 71.8761 55.7773 73.6292C54.7176 73.9555 53.65 74.2543 52.5942 74.5905C50.9587 75.1106 49.6688 74.5129 48.8511 73.1819C46.7376 69.7433 44.6306 66.3027 42.5303 62.8602C40.3575 59.2919 38.2173 55.7078 36.0445 52.1453C34.4179 49.4745 32.7369 46.8371 31.1261 44.1554C29.6775 41.7398 28.2135 39.3324 26.7341 36.9332C24.8309 33.8278 22.9752 30.693 21.0809 27.5817C19.7594 25.4112 18.3935 23.2663 17.078 21.0938C16.8113 20.6535 16.6533 20.0125 16.2415 19.8375C15.8129 19.6577 15.2627 20.0705 14.76 20.2249C11.5167 21.2295 8.26538 22.2105 5.022 23.2162C3.06254 23.8178 1.01814 22.6696 0.880859 20.4264Z" fill="#535353"/>
<path d="M89.4876 70.8828C89.4165 67.3665 92.3665 64.8195 95.3581 64.8048C99.037 64.7861 101.57 67.5444 101.555 70.8228C101.54 74.3391 98.7901 76.9912 95.1714 76.8271C91.9893 76.6835 89.535 74.1523 89.4876 70.8828Z" fill="#535353"/>
<path d="M66.2376 81.7467C66.0401 85.1155 63.6115 87.7431 60.0768 87.7038C59.2903 87.7006 58.5123 87.5423 57.7877 87.238C57.0631 86.9337 56.4062 86.4894 55.8552 85.9309C55.3042 85.3724 54.8698 84.7107 54.5773 83.9841C54.2848 83.2574 54.1399 82.4803 54.151 81.6976C54.1836 78.3248 56.8926 75.6373 60.2002 75.6963C63.574 75.7562 66.1586 78.3563 66.2376 81.7467Z" fill="#535353"/>
<path d="M91.9072 20.9824C92.1047 21.529 91.7096 21.6705 91.1171 21.8495C88.2006 22.7106 85.297 23.6189 82.3992 24.5449C81.9311 24.6943 81.7761 24.6039 81.6911 24.1409C81.0284 20.5253 80.3489 16.9128 79.6754 13.2982C79.6191 12.9935 79.6566 12.7644 80.026 12.6514C83.6414 11.5484 87.2548 10.4344 90.8662 9.30912C91.1625 9.2177 91.2455 9.29929 91.2613 9.58437C91.3929 12.2326 91.5273 14.8812 91.6642 17.5301C91.7245 18.633 91.8183 19.7301 91.9072 20.9824Z" fill="#FEFEFE"/>
<path d="M45.101 35.8604C45.1109 36.0511 44.9805 36.057 44.8403 36.0983C42.9243 36.6881 41.0112 37.2848 39.0982 37.8796C37.9999 38.2203 36.902 38.5608 35.8044 38.9009C35.4094 39.0238 35.1388 39.1211 34.8316 38.5854C33.444 36.174 31.9655 33.8148 30.5176 31.4349C30.011 30.6033 29.4905 29.7795 28.976 28.9528C28.7952 28.6579 28.5987 28.4947 29.1863 28.3315C31.3463 27.728 33.4786 27.0231 35.6207 26.3547C37.0107 25.9208 38.3996 25.4854 39.7875 25.0483C40.0443 24.9667 40.1352 25.0109 40.2606 25.292C41.2087 27.4203 42.2043 29.5288 43.1712 31.6492C43.7884 33.0038 44.379 34.3702 44.9854 35.7297C45.0169 35.779 45.0559 35.8231 45.101 35.8604Z" fill="#FEFEFE"/>
<path d="M45.9141 23.1742C48.0526 22.5188 50.1839 21.8635 52.308 21.2081C53.7736 20.755 55.2363 20.291 56.701 19.8319C56.935 19.7592 57.096 19.7621 57.1948 20.0737C58.299 23.6486 59.4123 27.2203 60.535 30.7886C60.6238 31.0727 60.6495 31.2251 60.2387 31.347C57.2685 32.2271 54.3089 33.1413 51.3599 34.0896C50.9539 34.2193 50.9016 34.0444 50.7772 33.7721C49.5861 31.1749 48.3822 28.5827 47.1871 25.9876C46.7634 25.0655 46.3516 24.1415 45.9141 23.1742Z" fill="#FEFEFE"/>
<path d="M75.9288 26.1993C76.0661 26.4755 75.8903 26.5325 75.678 26.5984C72.6973 27.5116 69.7156 28.4229 66.7409 29.3508C66.2471 29.5062 66.3202 29.0953 66.258 28.9026C65.6654 27.0575 65.1034 25.2055 64.5316 23.3544C64.0111 21.6666 63.4995 19.9758 62.9593 18.2949C62.8605 18 62.8951 17.9567 63.2081 17.8623C66.254 16.9393 69.289 15.9818 72.3279 15.0362C72.6063 14.967 72.8801 14.8807 73.1477 14.7776C73.7847 14.4827 73.8449 14.7501 73.9447 15.3104C74.5787 18.8866 75.2622 22.454 75.9278 26.0253C75.9333 26.0832 75.9337 26.1414 75.9288 26.1993Z" fill="#FEFEFE"/>
<path d="M92.2618 27.7969C92.487 31.3692 92.7112 34.9188 92.9324 38.4685C92.9324 38.5058 92.9068 38.5452 92.9058 38.5835C92.885 39.1025 93.1902 39.7523 92.888 40.1003C92.5858 40.4483 91.9369 40.4542 91.4382 40.6095L85.4818 42.4674C85.222 42.548 85.0739 42.547 85.0116 42.1922C84.3591 38.4914 83.6879 34.794 82.9979 31.0998C82.9347 30.7685 82.9781 30.6162 83.2695 30.5267C85.8913 29.7265 88.5141 28.928 91.1379 28.1311C91.5201 28.0171 91.9033 27.904 92.2618 27.7969Z" fill="#FEFEFE"/>
<path d="M38.3945 44.3807C40.9268 43.6011 43.4374 42.8295 45.9469 42.0548C46.3884 41.9182 46.824 41.7599 47.2635 41.6213C47.5597 41.523 47.7039 41.58 47.856 41.9221C49.3918 45.3135 50.9651 48.6872 52.5246 52.0678C52.587 52.2281 52.6388 52.3923 52.6796 52.5593C50.2836 53.2927 47.8807 54.0044 45.4966 54.7751C44.9722 54.9441 44.7065 54.8566 44.4369 54.4054C42.6147 51.3846 40.7727 48.3756 38.9417 45.3617C38.7521 45.0491 38.5832 44.7198 38.3945 44.3807Z" fill="#FEFEFE"/>
<path d="M53.4922 39.7321C56.2457 38.8808 58.9814 38.0482 61.7063 37.1822C62.2436 37.0111 62.4964 37.0121 62.6841 37.6579C63.7013 41.0828 64.7739 44.4909 65.8524 47.898C65.9946 48.3502 65.8741 48.5252 65.4573 48.651C63.3329 49.286 61.2046 49.9102 59.099 50.6023C58.5953 50.7674 58.4185 50.5659 58.2615 50.2209C57.0401 47.549 55.8246 44.8749 54.6151 42.1985C54.2487 41.3846 53.8744 40.5696 53.4922 39.7321Z" fill="#FEFEFE"/>
<path d="M79.2262 44.107C79.3565 44.4334 79.1156 44.4245 79.0287 44.4491C76.7206 45.1539 74.4056 45.8342 72.1024 46.5498C71.8061 46.6412 71.7686 46.6137 71.6817 46.3335C70.5689 42.7337 69.4411 39.1388 68.298 35.5489C68.1795 35.1793 68.4106 35.1183 68.5943 35.0574C70.7019 34.4056 72.8155 33.7794 74.926 33.1336C75.5354 32.9478 76.1359 32.7315 76.7472 32.5526C76.9181 32.5035 77.0978 32.4327 77.161 32.7866C77.72 35.9028 78.3176 39.013 78.8953 42.1252C79.0326 42.8173 79.1294 43.5113 79.2262 44.107Z" fill="#FEFEFE"/>
</g>
<defs>
<clipPath id="clip0_9_96251">
<rect width="105" height="90" fill="white"/>
</clipPath>
</defs>
</svg>

<svg xmlns="http://www.w3.org/2000/svg" width="105" height="90" fill="none" viewBox="0 0 105 90"><g clip-path="url(#a)"><path fill="#fdfdfd" d="M58.764 98.939q-29.106 0-58.212.011c-.45 0-.55-.098-.55-.547Q.018 44.417 0-9.57c0-.447.099-.547.55-.547q58.212.018 116.424 0c.449 0 .551.098.55.547q-.018 53.985 0 107.973c0 .446-.099.547-.55.547q-29.106-.02-58.21-.011"/><path fill="#535353" d="M.88 20.426c.14-1.487.75-2.513 2.562-3.07 2.155-.664 4.319-1.298 6.474-1.96 2.271-.696 4.528-1.412 6.794-2.112 1.34-.415 2.83.21 3.555 1.413 1.648 2.735 3.341 5.442 4.999 8.171.176.295.34.29.62.202 3.566-1.102 7.136-2.187 10.702-3.29 3.509-1.086 7.012-2.192 10.52-3.278q5.014-1.553 10.033-3.085 5.988-1.844 11.975-3.693l11.643-3.589c3.345-1.029 6.684-2.073 10.038-3.072.987-.295 1.95-.702 2.993-.838C95.511 2 97.116 3.559 97.09 5.272c-.022 1.475.107 2.944.186 4.416q.165 3.117.36 6.233c.216 3.54.45 7.088.66 10.633.117 1.966.198 3.94.306 5.91.151 2.753.334 5.505.448 8.267.029.689.177 1.365.045 2.07-.242 1.288-1.031 2.075-2.218 2.447-4.398 1.376-8.811 2.71-13.217 4.064q-6.579 2.024-13.158 4.051L51.929 59.08c-1.12.345-2.228.73-3.358 1.034-.445.119-.453.32-.275.611a877 877 0 0 0 3.635 5.908c.235.381.534.738.69 1.15.158.41.414.415.737.315 1.768-.549 3.531-1.11 5.3-1.656q7.546-2.33 15.093-4.65 9.275-2.856 18.549-5.718c1.715-.527 3.442-1.013 5.142-1.581 1.316-.44 2.789.117 3.474 1.099.808 1.155.691 2.733-.276 3.81a3.07 3.07 0 0 1-1.432.858 1182 1182 0 0 0-11.96 3.69c-4.818 1.51-9.657 2.955-14.483 4.439a8841 8841 0 0 0-16.988 5.24c-1.06.326-2.127.625-3.183.962-1.635.52-2.925-.078-3.743-1.41q-3.17-5.157-6.32-10.32c-2.173-3.57-4.314-7.153-6.486-10.716-1.627-2.67-3.308-5.308-4.919-7.99a684 684 0 0 0-4.392-7.222c-1.903-3.105-3.759-6.24-5.653-9.351-1.322-2.17-2.687-4.316-4.003-6.488-.267-.44-.425-1.082-.837-1.257-.428-.18-.978.233-1.481.388-3.243 1.005-6.495 1.985-9.738 2.991-1.96.602-4.004-.546-4.141-2.79M89.488 70.883c-.072-3.516 2.879-6.063 5.87-6.078 3.679-.019 6.212 2.74 6.197 6.018-.015 3.516-2.765 6.168-6.384 6.004-3.182-.144-5.636-2.675-5.683-5.944M66.238 81.747c-.198 3.368-2.626 5.996-6.161 5.957a5.98 5.98 0 0 1-4.222-1.773 5.92 5.92 0 0 1-1.704-4.233c.033-3.373 2.742-6.06 6.05-6.002 3.373.06 5.958 2.66 6.037 6.05"/><path fill="#fefefe" d="M91.907 20.982c.198.547-.197.689-.79.867-2.916.862-5.82 1.77-8.718 2.696-.468.15-.623.059-.708-.404-.663-3.616-1.342-7.228-2.016-10.843-.056-.305-.018-.534.351-.647q5.423-1.655 10.84-3.342c.296-.091.38-.01.395.275q.198 3.973.403 7.946c.06 1.103.154 2.2.243 3.452M45.101 35.86c.01.191-.12.197-.26.238-1.917.59-3.83 1.187-5.743 1.782l-3.294 1.02c-.395.124-.665.221-.972-.315-1.388-2.411-2.867-4.77-4.314-7.15-.507-.832-1.027-1.655-1.542-2.482-.18-.295-.377-.458.21-.622 2.16-.603 4.293-1.308 6.435-1.976q2.085-.651 4.166-1.307c.257-.081.348-.037.474.244.948 2.128 1.943 4.237 2.91 6.357.617 1.355 1.208 2.721 1.814 4.08q.047.075.116.131M45.914 23.174q3.208-.982 6.394-1.966c1.466-.453 2.928-.917 4.393-1.376.234-.073.395-.07.494.242a2140 2140 0 0 0 3.34 10.715c.089.284.115.436-.296.558q-4.455 1.32-8.88 2.743c-.405.13-.457-.046-.582-.318-1.19-2.597-2.395-5.19-3.59-7.784-.424-.922-.835-1.846-1.273-2.814M75.929 26.2c.137.276-.039.332-.251.398-2.98.914-5.962 1.825-8.937 2.753-.494.155-.42-.256-.483-.448-.593-1.845-1.155-3.697-1.726-5.549-.52-1.687-1.032-3.378-1.573-5.06-.099-.294-.064-.337.25-.432 3.045-.923 6.08-1.88 9.119-2.826a7 7 0 0 0 .82-.258c.637-.295.697-.028.797.532.634 3.577 1.317 7.144 1.983 10.715a1 1 0 0 1 0 .174M92.262 27.797c.225 3.572.45 7.122.67 10.671 0 .038-.025.077-.026.115-.021.52.284 1.17-.018 1.517-.302.348-.951.354-1.45.51l-5.956 1.857c-.26.081-.408.08-.47-.275q-.98-5.55-2.014-11.092c-.063-.332-.02-.484.271-.573q3.933-1.2 7.869-2.396zM38.395 44.38c2.532-.779 5.042-1.55 7.552-2.325.441-.137.877-.295 1.316-.434.297-.098.44-.041.593.301 1.536 3.392 3.11 6.765 4.669 10.146q.093.24.155.491c-2.396.734-4.8 1.445-7.183 2.216-.525.17-.79.082-1.06-.37-1.822-3.02-3.664-6.03-5.495-9.043-.19-.313-.359-.642-.547-.981M53.492 39.732c2.754-.851 5.49-1.684 8.214-2.55.538-.17.79-.17.978.476a600 600 0 0 0 3.168 10.24c.143.452.022.627-.395.753-2.124.635-4.252 1.26-6.358 1.951-.504.165-.68-.036-.837-.381a2039 2039 0 0 1-3.647-8.022c-.366-.814-.74-1.63-1.123-2.467M79.226 44.107c.13.326-.11.318-.197.342-2.308.705-4.623 1.385-6.927 2.1-.296.092-.333.065-.42-.215q-1.669-5.4-3.384-10.785c-.118-.37.113-.43.296-.492 2.108-.651 4.222-1.278 6.332-1.923.61-.186 1.21-.403 1.821-.581.171-.05.35-.12.414.234.559 3.116 1.157 6.226 1.734 9.338.138.692.234 1.386.331 1.982"/></g><defs><clipPath id="a"><path fill="#fff" d="M0 0h105v90H0z"/></clipPath></defs></svg>
